X: 5
T: The Four Courts
R: reel
M: 4/4
L: 1/8
K: Gmix
dG G2 dGeG | dG G2 c2 Bc | dG G2 ec c2 | eg=fd c2 Bc :|
A2 =fA gA=fA | A2 =fd c2 Bc | A2 =fA gA=fA | eg=fd c2 Bc |
A2 =fA gA=fA | A2 =fd c2 Bc | dg g2 gfdf | gfdB c2 Bc |
d3 g e3 g | dedB c2 Bc | d3 g e3 d | cege cege |
d3 g e3 g | dedB c2 Bc | dg g2 gfdf | gfdB c2 Bc |


Tune 2278	Setting 26104

